X:1
T:Title
%%score { ( 1 4 ) | ( 2 3 5 ) }
L:1/8
Q:1/4=100
M:3/4
K:D
V:1 treble nm="Grand Piano"
V:4 treble 
V:2 bass 
V:3 bass 
V:5 bass 
V:1
 [FA]2 [=F^G]2 [E=G]2 | [EG]2 [DF]4 | [DF]2 [CE]2 [EG]2 | [DF]6 | [FA]2 [DF]2 [Fd]2 | [Fd]2 [Ec]4 | %6
w: W.~J.~Kirkpatrick * *||||||
 [Ec]2 [CA]2 [DB]2 | [CA]6 | [EG]2 [Ac]2 [GB]2 | [=FB]2 [^FA]4 | [FA]2 [Fd]2 [^Gd]2 | %11
w: |||||
 c2- [Ac-]2 c2 | [Fd]2 A2 F2 | z2 B4 | %14
w: |||
 z2 z2 c2[Q:1/4=98][Q:1/4=97][Q:1/4=95][Q:1/4=94][Q:1/4=92][Q:1/4=91][Q:1/4=89][Q:1/4=88][Q:1/4=86][Q:1/4=84][Q:1/4=83][Q:1/4=81][Q:1/4=80][Q:1/4=78][Q:1/4=77] | %15
w: |
 [Fd]6 |] %16
w: |
V:2
 z2 B,2 ^A,2 | z2 A,2 A,2 | z2 A,2 A,2 | z2 A,2 A,2 | z2 A,2 A,2 | z2 A,2 A,2 | z2 A,2 F,2 | %7
 z2 A,2 A,2 | z2 A,2 A,2 | z2 A,2 A,2 | z2 B,2 E,2 | z2 z2[K:treble] G2 | z2 [A,F]2 [A,D]2 | %13
 z2 z2 D2- | D2 z2[K:bass] z2 | z6 |] %16
V:3
 [D,A,]4 z2 | D,4 z2 | A,,4 z2 | D,4 z2 | D,4 z2 | A,,4 z2 | E,4 z2 | A,,4 z2 | A,,4 z2 | D,4 z2 | %10
 D,4 z2 | z2 A,4[K:treble] | D,4 z2 | D2 D2 z2 | [A,F]2 [^G,D=F]2[K:bass] EA,, | D,6 |] %16
V:4
 x6 | x6 | x6 | x6 | x6 | x6 | x6 | x6 | x6 | x6 | x6 | E2 z2 z2 | x6 | E2 z2 G2 | A2 B2 z G | %15
 x6 |] %16
V:5
 x6 | x6 | x6 | x6 | x6 | x6 | x6 | x6 | x6 | x6 | x6 | A,,6[K:treble] | x6 | [G,-B,]4 G,2 | %14
 z2 z2[K:bass] A,2- | A,6 |] %16

